Sources/FrostedUI/Resources/Icons.xcassets/monitor16.imageset/monitor-16.svg

<svg width="16" height="16" viewBox="0 0 16 16" fill="none" xmlns="http://www.w3.org/2000/svg" data-fui-icon="true">
  <path
    d="M12.833 1.75C13.9835 1.75 14.9158 2.68257 14.916 3.83301V10.167C14.9158 11.3175 13.9835 12.25 12.833 12.25H10.6143V13.458H11C11.414 13.4582 11.7498 13.794 11.75 14.208C11.75 14.6221 11.4141 14.9578 11 14.958H5C4.58595 14.9578 4.25 14.6221 4.25 14.208C4.25016 13.7941 4.58606 13.4582 5 13.458H5.38477V12.25H3.16602C2.01586 12.2496 1.08318 11.3172 1.08301 10.167V3.83301C1.08318 2.68279 2.01585 1.75037 3.16602 1.75H12.833ZM6.88477 13.458H9.11426V12.25H6.88477V13.458ZM13.375 9.58301H2.58301V10.167C2.58318 10.4888 2.84427 10.7496 3.16602 10.75H12.833C13.1551 10.75 13.4158 10.489 13.416 10.167V9.58008C13.4025 9.58084 13.3887 9.583 13.375 9.58301ZM3.16602 3.25C2.84428 3.25037 2.58318 3.51122 2.58301 3.83301V8.08301H13.375C13.3886 8.08301 13.4025 8.08422 13.416 8.08496V3.83301C13.4158 3.51098 13.1551 3.25 12.833 3.25H3.16602Z"
    fill="currentColor"
  />
</svg>

<svg xmlns="http://www.w3.org/2000/svg" width="16" height="16" fill="none" data-fui-icon="true" viewBox="0 0 16 16"><path fill="currentColor" d="M12.833 1.75c1.15 0 2.083.933 2.083 2.083v6.334c0 1.15-.933 2.083-2.083 2.083h-2.219v1.208H11a.75.75 0 0 1 0 1.5H5a.75.75 0 0 1 0-1.5h.385V12.25H3.166a2.084 2.084 0 0 1-2.083-2.083V3.833c0-1.15.933-2.083 2.083-2.083zM6.885 13.458h2.23V12.25h-2.23zm6.49-3.875H2.583v.584c0 .322.261.583.583.583h9.667a.583.583 0 0 0 .583-.583V9.58q-.02.001-.041.003M3.166 3.25a.584.584 0 0 0-.583.583v4.25h10.792l.041.002V3.833a.583.583 0 0 0-.583-.583z"/></svg>
